<?xml version="1.0" encoding="UTF-8"?>
<map version="1.10" tiledversion="1.11.2" orientation="orthogonal" renderorder="right-down" width="30" height="17" tilewidth="32" tileheight="32" infinite="0" nextlayerid="2" nextobjectid="1">
 <tileset firstgid="1" source="bases/stone ruin/011.tsx"/>
 <tileset firstgid="2" source="bases/stone ruin/base.tsx"/>
 <layer id="1" name="Warstwa Kafelków 1" width="30" height="17">
  <data encoding="csv">
1,1,1,1,1,1,1,1,1,1,1,1,1,1,1,1,1,1,1,1,1,1,1,1,1,1,1,1,1,1,
1,1,1,1,1,20,10,10,10,10,10,13,1,1,1,1,1,1,1,15,10,10,10,10,10,10,10,10,13,1,
1,1,1,1,1,1,18,12,2,3,2,5,13,1,1,7,1,15,10,12,2,2,2,2,2,2,2,6,11,1,
1,1,1,7,1,1,1,1,9,4,2,2,2,13,1,1,1,9,11,21,9,2,8,2,2,2,2,2,11,1,
1,1,1,1,1,1,1,1,9,12,12,12,2,11,1,15,10,2,11,19,9,2,2,2,2,2,2,2,16,1,
1,1,7,1,15,10,10,10,16,15,10,13,9,2,10,2,2,2,2,10,2,2,25,26,2,12,12,16,1,1,
1,1,1,1,9,2,2,11,20,12,12,16,9,2,2,6,2,2,2,2,2,2,24,23,11,1,1,1,1,1,
1,1,1,1,9,2,8,2,10,14,14,10,2,3,2,2,2,8,2,2,3,2,2,12,16,1,1,1,1,1,
1,1,15,10,2,12,2,2,16,1,1,9,2,12,12,12,2,2,2,2,2,2,11,1,1,1,1,1,1,1,
1,15,2,2,11,7,9,11,1,1,1,9,11,20,14,13,9,2,25,12,2,2,16,1,7,1,7,1,1,1,
1,9,2,3,2,14,12,16,1,7,1,18,2,10,13,17,9,11,20,22,18,16,1,1,1,1,1,1,1,1,
1,9,2,2,11,1,1,1,1,1,1,1,9,2,2,19,9,2,13,15,13,1,1,1,1,1,1,1,1,1,
1,9,2,2,11,1,7,1,1,1,1,1,9,2,2,10,2,5,11,18,16,1,1,7,1,1,1,1,1,1,
1,9,4,2,11,1,1,1,1,7,1,1,9,2,2,2,8,2,11,1,1,1,1,1,1,1,1,1,1,1,
1,9,2,2,2,10,10,10,10,10,10,10,5,2,2,2,2,2,11,1,1,7,1,1,1,1,1,1,1,1,
1,18,12,12,12,12,12,12,12,12,12,12,12,12,12,12,12,12,16,1,1,1,1,1,1,1,1,1,1,1,
1,1,1,1,1,1,1,1,1,1,1,1,1,1,1,1,1,1,1,1,1,1,1,1,1,1,1,1,1,1
</data>
 </layer>
</map>
