<?xml version="1.0" encoding="UTF-8"?>
<map version="1.10" tiledversion="1.11.2" orientation="orthogonal" renderorder="right-down" width="30" height="17" tilewidth="32" tileheight="32" infinite="0" nextlayerid="3" nextobjectid="1">
 <tileset firstgid="1" source="1.tsx"/>
 <layer id="1" name="Warstwa Kafelków 1" width="30" height="17">
  <data encoding="csv">
26,26,26,26,26,26,26,32,26,26,26,26,26,26,26,26,26,27,26,26,26,26,26,26,26,30,26,26,26,26,
26,26,26,26,14,9,12,26,26,26,26,26,29,26,26,26,26,26,26,26,14,12,26,26,26,26,26,26,32,26,
28,26,26,33,8,1,1,9,9,9,9,13,13,9,9,9,9,9,13,9,1,1,9,9,9,9,12,26,26,26,
27,26,14,9,1,1,1,1,1,1,10,20,21,8,1,1,11,15,19,17,1,1,1,4,1,1,10,26,27,26,
26,26,8,2,1,7,1,10,26,17,1,9,9,1,1,10,20,6,17,21,8,1,1,1,1,1,10,26,26,26,
26,26,8,1,1,1,1,15,31,26,17,11,11,1,3,1,12,19,14,1,11,11,11,1,1,2,10,26,26,26,
26,26,17,1,1,1,10,26,26,26,26,26,30,8,1,1,10,16,8,10,26,26,26,17,1,1,10,26,26,26,
26,26,26,1,1,5,10,26,26,27,26,26,14,11,1,1,10,18,8,10,26,26,26,26,8,1,10,26,32,26,
26,28,26,8,1,1,1,12,26,26,26,26,16,19,17,7,1,13,1,11,21,26,27,26,8,1,10,26,26,26,
26,26,26,8,1,1,1,10,6,14,9,9,10,17,12,8,10,19,16,26,26,30,26,6,8,1,10,26,26,26,
26,26,26,17,1,1,1,1,9,1,11,11,1,12,18,8,15,17,21,33,26,26,26,26,8,1,15,26,26,26,
26,26,26,26,17,1,1,1,11,15,26,26,8,1,9,10,26,8,1,9,9,12,26,14,1,10,26,26,26,26,
26,27,26,35,26,1,1,10,33,26,26,29,8,1,2,1,9,1,1,1,4,1,9,1,1,15,26,28,26,26,
26,26,26,34,26,8,1,10,26,14,9,9,1,1,11,11,11,11,11,11,11,1,1,1,10,26,26,26,26,26,
26,34,26,35,26,8,5,1,9,1,11,11,11,15,26,26,26,26,26,26,26,17,11,11,15,26,26,26,26,26,
26,29,26,26,26,17,11,11,11,15,26,26,26,26,29,26,26,26,26,26,35,26,26,26,26,26,26,29,26,26,
26,26,26,26,26,26,26,26,26,26,26,26,26,26,26,26,26,27,26,26,26,26,26,26,26,26,26,26,26,26
</data>
 </layer>
</map>
