<?xml version="1.0" encoding="UTF-8"?>
<map version="1.10" tiledversion="1.11.2" orientation="orthogonal" renderorder="right-down" width="30" height="24" tilewidth="32" tileheight="32" infinite="0" nextlayerid="2" nextobjectid="1">
 <tileset firstgid="1" source="bases/stone ruin/base.tsx"/>
 <tileset firstgid="26" source="bases/stone ruin/011.tsx"/>
 <layer id="1" name="Warstwa Kafelków 1" width="30" height="24">
  <data encoding="csv">
26, 26, 26, 06, 26, 26, 08, 01, 01, 01, 01, 01, 01, 01, 01, 01, 01, 01, 10, 26, 06, 26, 26, 26, 26, 26, 08, 01, 01, 01, 
26, 26, 26, 26, 26, 14, 01, 03, 05, 01, 07, 01, 24, 25, 01, 01, 01, 03, 01, 09, 12, 26, 26, 26, 06, 26, 08, 02, 01, 01, 
26, 26, 26, 14, 09, 01, 01, 01, 01, 11, 11, 01, 23, 19, 21, 08, 01, 01, 01, 01, 10, 26, 26, 26, 26, 26, 08, 01, 01, 01, 
06, 26, 14, 01, 01, 01, 02, 01, 10, 26, 26, 17, 11, 20, 16, 08, 02, 01, 01, 01, 01, 12, 26, 26, 26, 14, 01, 04, 01, 02, 
26, 14, 01, 01, 05, 01, 04, 01, 10, 06, 26, 26, 20, 18, 18, 08, 01, 01, 04, 01, 01, 01, 12, 26, 26, 08, 01, 01, 01, 01, 
26, 08, 01, 24, 25, 01, 01, 01, 15, 26, 26, 26, 18, 20, 14, 01, 01, 11, 11, 01, 01, 07, 01, 09, 09, 01, 01, 11, 01, 01, 
09, 01, 01, 23, 22, 01, 01, 15, 26, 26, 26, 06, 26, 26, 17, 01, 10, 19, 12, 08, 01, 01, 01, 01, 01, 11, 15, 26, 17, 01, 
01, 02, 04, 01, 02, 01, 15, 26, 06, 26, 26, 26, 26, 26, 26, 08, 01, 12, 16, 08, 01, 04, 01, 02, 15, 26, 26, 26, 26, 08, 
01, 01, 01, 01, 01, 10, 26, 26, 26, 26, 26, 26, 26, 26, 26, 08, 05, 10, 18, 08, 01, 01, 01, 10, 26, 26, 06, 26, 26, 08, 
01, 01, 03, 01, 01, 01, 09, 12, 26, 26, 26, 26, 14, 09, 09, 01, 01, 01, 09, 01, 01, 01, 01, 10, 26, 26, 26, 26, 26, 08, 
01, 07, 01, 01, 19, 13, 21, 01, 09, 09, 09, 13, 11, 11, 11, 11, 01, 01, 07, 01, 02, 02, 01, 01, 12, 26, 26, 26, 26, 08, 
11, 11, 01, 01, 01, 01, 01, 01, 01, 01, 10, 06, 19, 21, 14, 12, 08, 01, 01, 02, 01, 01, 01, 03, 01, 12, 26, 14, 09, 01, 
14, 21, 08, 01, 24, 25, 01, 01, 01, 01, 10, 17, 01, 01, 17, 15, 08, 01, 01, 01, 11, 11, 01, 01, 01, 01, 09, 01, 01, 01, 
18, 06, 17, 01, 23, 22, 01, 01, 01, 01, 01, 02, 17, 11, 19, 21, 08, 05, 01, 10, 26, 26, 17, 01, 01, 01, 01, 01, 01, 01, 
13, 13, 21, 17, 01, 07, 01, 03, 05, 02, 01, 01, 09, 11, 09, 09, 01, 01, 01, 10, 26, 26, 26, 08, 01, 01, 01, 01, 01, 01, 
06, 26, 19, 21, 17, 11, 11, 01, 01, 03, 01, 01, 10, 06, 08, 01, 03, 01, 01, 15, 26, 06, 26, 17, 01, 01, 07, 01, 01, 01, 
06, 26, 19, 13, 21, 14, 12, 08, 01, 01, 01, 02, 01, 09, 01, 01, 01, 15, 06, 26, 26, 26, 26, 26, 17, 01, 01, 01, 01, 01, 
26, 26, 26, 18, 19, 21, 18, 17, 11, 11, 11, 01, 01, 01, 01, 01, 10, 26, 26, 26, 26, 26, 26, 26, 26, 17, 01, 01, 03, 01, 
26, 26, 26, 06, 19, 21, 26, 19, 21, 19, 21, 08, 01, 01, 01, 01, 10, 26, 26, 06, 26, 06, 26, 26, 26, 26, 02, 01, 01, 01, 
26, 26, 26, 26, 26, 26, 26, 26, 14, 09, 09, 07, 01, 11, 11, 01, 01, 12, 26, 26, 26, 26, 26, 26, 26, 26, 08, 01, 01, 11, 
06, 26, 26, 26, 19, 12, 26, 26, 08, 03, 01, 01, 10, 14, 21, 25, 01, 10, 26, 26, 26, 14, 09, 09, 09, 09, 01, 01, 10, 26, 
26, 26, 26, 26, 26, 18, 26, 26, 17, 11, 02, 03, 10, 18, 06, 20, 08, 01, 09, 13, 13, 11, 01, 01, 03, 01, 01, 11, 15, 26, 
26, 26, 26, 26, 26, 26, 26, 26, 26, 26, 17, 03, 10, 19, 12, 16, 08, 01, 24, 14, 09, 12, 08, 02, 11, 11, 15, 26, 06, 26, 
26, 26, 06, 26, 26, 26, 26, 26, 26, 26, 26, 17, 01, 23, 18, 18, 08, 10, 14, 01, 01, 10, 08, 10, 26, 26, 26, 26, 26, 26
</data>
 </layer>
</map>
